src/lib/packages/icons/src/assets/line/envelopes.svg

<svg width="24" height="24" viewBox="0 0 24 24" fill="none" xmlns="http://www.w3.org/2000/svg">
<path d="M18.3301 3.25H7.66992C5.60292 3.25 4.42008 4.329 4.27808 6.278C2.32908 6.419 1.25 7.60001 1.25 9.66701V17.333C1.25 19.537 2.46399 20.75 4.66699 20.75H15.333C17.399 20.75 18.5809 19.671 18.7219 17.722C20.6709 17.58 21.75 16.397 21.75 14.33V6.67C21.75 4.465 20.5351 3.25 18.3301 3.25ZM17.25 17.333C17.25 18.694 16.694 19.25 15.333 19.25H4.66699C3.30599 19.25 2.75 18.694 2.75 17.333V9.66701C2.75 8.30601 3.30599 7.75 4.66699 7.75H15.333C16.694 7.75 17.25 8.30601 17.25 9.66701V17.333ZM20.25 14.33C20.25 15.543 19.806 16.114 18.75 16.226V9.666C18.75 7.462 17.536 6.24899 15.333 6.24899H5.77295C5.88595 5.19199 6.45695 4.74899 7.66895 4.74899H18.3291C19.6921 4.74899 20.249 5.30501 20.249 6.66901V14.33H20.25ZM15.74 10.292C15.984 10.627 15.91 11.097 15.575 11.34L10.99 14.674C10.694 14.89 10.346 14.997 10 14.997C9.654 14.997 9.30601 14.89 9.01001 14.674L4.42505 11.34C4.09005 11.097 4.01601 10.628 4.26001 10.292C4.50301 9.95901 4.97111 9.883 5.30811 10.127L9.89307 13.461C9.95707 13.508 10.0429 13.508 10.1079 13.461L14.6931 10.127C15.0291 9.882 15.497 9.95801 15.74 10.292Z" fill="currentColor"/>
</svg>

<svg xmlns="http://www.w3.org/2000/svg" width="24" height="24" fill="none"><path fill="currentColor" d="M18.33 3.25H7.67c-2.067 0-3.25 1.079-3.392 3.028C2.33 6.419 1.25 7.6 1.25 9.667v7.666c0 2.204 1.214 3.417 3.417 3.417h10.666c2.066 0 3.248-1.079 3.389-3.028 1.949-.142 3.028-1.325 3.028-3.392V6.67c0-2.205-1.215-3.42-3.42-3.42Zm-1.08 14.083c0 1.361-.556 1.917-1.917 1.917H4.667c-1.361 0-1.917-.556-1.917-1.917V9.667c0-1.361.556-1.917 1.917-1.917h10.666c1.361 0 1.917.556 1.917 1.917v7.666Zm3-3.003c0 1.213-.444 1.784-1.5 1.896v-6.56c0-2.204-1.214-3.417-3.417-3.417h-9.56c.113-1.057.684-1.5 1.896-1.5h10.66c1.363 0 1.92.556 1.92 1.92v7.661h.001Zm-4.51-4.038a.75.75 0 0 1-.165 1.048l-4.585 3.334a1.678 1.678 0 0 1-1.98 0L4.425 11.34a.75.75 0 1 1 .883-1.213l4.585 3.334c.064.047.15.047.215 0l4.585-3.334a.748.748 0 0 1 1.047.165Z"/></svg>
